X: 2045
M: 3/2
L: 1/8
K: Gm
[|\
d2g3_a f2f3g | e2e3f d2B3d |\
c>BA3c B>AG3B | A>G^F3F G2G4 |\
d2g3_a f2B3g | e2e3d d3B2(c/G/) |
_A2A3G G2c3G | (=AB)B3A B2B4 |\
d2=e3e f2^f4 | (gA)A3G ^F2D4 |\
d2e3f =B2c3d | (ef)d3B c2c3d |
e2e4 d2d4 | g2g3_a ^f2d4 |\


